X: 5
T: Maire Rua
R: slip jig
M: 9/8
L: 1/8
K: Gmaj
S: O'Neil's Music of Ireland, no.1169
D|DGG GAG FGA|BGB cAB c2c|DGG GAG FGA|BGB cAF G2 (G/F/)|DGG GAG FGA|
BGB cAB c2 (B/c/)|ded cAG FGA|BGB cAF G2||(B/c/)|ded cAG FGA|ded cAB c2 (B/c/)|
ded cAG FGA|BGB cAF G2 (B/c/)|ded cAG FGA|ded cAB c2 (d/e/)|fed cAG FGA|BGB cAF G2|]


Tune 993	Setting 27018

